!!!COM: Bach, Johann Sebastian
!!!OTL: 153. Alle Menschen muessen sterben
!!!ONM: No. 153
!!!OCL: Erk
!!!SCA: BWV 262
!!!YOE: Riemenschneider, Albert
!!!OPR: 371 Harmonized Chorales and 69 Chorale Melodies with Figured Bass
!!!OPT: Bach Chorale Harmonizations
**harm	**root	**kern	**kern	**kern	**kern
!	!	!bass	!tenor	!alto	!sprno
*Iorgan	*Iorgan	*Iorgan	*Iorgan	*Iorgan	*Iorgan
*>[A,A,B]	*>[A,A,B]	*>[A,A,B]	*>[A,A,B]	*>[A,A,B]	*>[A,A,B]
*>norep[A,B]	*>norep[A,B]	*>norep[A,B]	*>norep[A,B]	*>norep[A,B]	*>norep[A,B]
*>A	*>A	*>A	*>A	*>A	*>A
*k[f#]	*k[f#]	*k[f#]	*k[f#]	*k[f#]	*k[f#]
*G:	*G:	*G:	*G:	*G:	*G:
*met(c)	*met(c)	*met(c)	*met(c)	*met(c)	*met(c)
*M4/4	*M4/4	*M4/4	*M4/4	*M4/4	*M4/4
*MM60	*MM60	*MM60	*MM60	*MM60	*MM60
=1-	=1-	=1-	=1-	=1-	=1-
I	4DD	4G	4B	4g	4dd
vi	4BB	4E	8B	4g	4gg
.	.	.	8c	.	.
Ib	4DD	4BB	4d	4g	4dd
IV	4GG	4C	8c	4g	4ee
.	.	.	8B	.	.
=2	=2	=2	=2	=2	=2
V	4AA	4D	8A	4g	4.dd
.	.	.	8G	.	.
V	4AA	4D	4A	4f#	.
.	.	.	.	.	8cc
I	4DD	4GG	4G	4g	4b
I;	4DD;	4GG;	4G;	4g;	4b;
=3	=3	=3	=3	=3	=3
I	4DD	4G	4B	4g	4dd
I	4DD	4G	4B	8g	4dd
.	.	.	.	8f#	.
ii	4EE	4A	4c	8e	4cc
.	.	.	.	8f#	.
Ib	4DD	4B	4d	[4g	4b
=4	=4	=4	=4	=4	=4
ii7b	4EE	8c	4e	4g]	4.a
.	.	8A	.	.	.
V	4AA	8d	8.d	4f#	.
.	.	8D	.	.	8g
.	.	.	16c	.	.
I;	2DD;	2G;	2B;	2g;	2g;
=5:|!	=5:|!	=5:|!	=5:|!	=5:|!	=5:|!
*>B	*>B	*>B	*>B	*>B	*>B
V	4AA	4D	4d	4f#	4a
V	4AA	4D	4d	4f#	4a
I	4DD	4G	4d	4g	8b
.	.	.	.	.	8cc#
iii	4FF#	8B	4d	4f#	4dd
.	.	8A	.	.	.
=6	=6	=6	=6	=6	=6
!!linebreak: 2
vi7b	4BB	4G	4e	4b	4.dd
V/V	4EE	4A	4e	8a	.
.	.	.	.	8g	8cc#
V	4AA	2D;	4d	4f#	4dd
V;	4AA;	.	4d;	4f#;	4dd;
=7	=7	=7	=7	=7	=7
ii	2EE	2A	4.c	8a	4.ee
.	.	.	.	8b	.
.	.	.	.	4cc	.
.	.	.	8d	.	8ff#
vi	4BB	8E	[2e	4b	4gg
.	.	8F#	.	.	.
vib	4BB	8G	.	4b	4gg
.	.	8A	.	.	.
=8	=8	=8	=8	=8	=8
V/vi	2FF#	2B	4e]	4.b	4.ff#
.	.	.	4d#	.	.
.	.	.	.	8a	8ff#
vi	4BB	2E;	2e;	4g	4ee
vi;	4BB;	.	.	4g;	4ee;
=9	=9	=9	=9	=9	=9
I	4DD	4G	4d	4g	4b
I	4DD	4G	4d	4g	4b
IV	4GG	4C	8c	4g	4ee
.	.	.	8B	.	.
V	4AA	4D	4A	4f#	4dd
=10	=10	=10	=10	=10	=10
vi7	4BB	2E	8G	4g	4dd
.	.	.	8B	.	.
V7c/V	4EE	.	8A	4g	4cc#
.	.	.	8G	.	.
V;	2AA;	2D;	2A;	2f#;	2dd;
=11	=11	=11	=11	=11	=11
IV	4GG	4C	4c	4g	4ee
I	4DD	4G	4B	8g	4dd
.	.	.	.	8f#	.
ii	4EE	4A	4c	8e	4cc
.	.	.	.	8f#	.
Ib	4DD	4B	4d	4g	4b
=12	=12	=12	=12	=12	=12
ii7b	4EE	8c	4e	4g	4.a
.	.	8A	.	.	.
V	4AA	8d	8.d	4f#	.
.	.	8D	.	.	8g
.	.	.	16c	.	.
I;	2DD;	2G;	2B;	2g;	2g;
==	==	==	==	==	==
*-	*-	*-	*-	*-	*-
!!!CDT: 1685/3//-1750/7/28
!!!OCY: Deutschland
!!!AGN: chorale
!!!AST: Baroque
!!!AIN: vox
!!!YOY: 1941
!!!PPP: New York; London
!!!PPR: G. Schirmer
!!!ENC: David Huron
!!!EED: David Huron
!!!YEN: United States of America
!!!YER: 1992
!!!YEC: Copyright 1992 David Huron
!!!YEM: Rights to all derivative electronic formats reserved.
!!!YER: March 20, 1996
!!!AMT: simple quadruple
!!!EEV: 1.1
!!chor2scor: -l 2 -s 0.6 -o %b.pmx
